X: 533
T: John O'Neill's reel
C: anon.
O: Ireland
B: Francis O'Neill: "The Dance Music of Ireland" (1907) no. 533
R: Reel
Z: Transcribed by Frank Nordberg - http://www.musicaviva.com
F: http://www.musicaviva.com/abc/tunes/ireland/oneill-1001/oneill-1001-053
3.abc
M: C|
L: 1/8
K: D
A|BcBA FAAc|B>(E {F}(3EDE) FEFA|BcBA FAAB|ABde fdd:|e|f2fd e2ed|fgfd edBd
|
fgfe dedB|ABde fdde|f2(fd)e2(ed)|fgfd edBd|f>(a {b}(3aga) bgaf|edeg fdd|]


